components/Modals/images/github.svg

<?xml version="1.0" encoding="UTF-8" standalone="no"?>
<svg width="16px" height="16px" viewBox="0 0 16 16" version="1.1" xmlns="http://www.w3.org/2000/svg" xmlns:xlink="http://www.w3.org/1999/xlink">
    <!-- Generator: Sketch 3.7.2 (28276) - http://www.bohemiancoding.com/sketch -->
    <title>Shape</title>
    <desc>Created with Sketch.</desc>
    <defs></defs>
    <g id="Desktop-design" stroke="none" stroke-width="1" fill="none" fill-rule="evenodd">
        <g id="Log-in" transform="translate(-765.000000, -665.000000)" fill="#0070D3">
            <g id="Group-57" transform="translate(0.000000, 1.000000)">
                <g id="Group-39" transform="translate(540.000000, 155.000000)">
                    <g id="Group-37" transform="translate(70.000000, 496.000000)">
                        <g id="Group-38" transform="translate(155.000000, 13.000000)">
                            <path d="M14.4739583,12.4551345 C13.456597,13.8203137 12.142361,14.7650451 10.5312497,15.2893284 C10.3437499,15.3233724 10.2065972,15.2995417 10.1197916,15.2178349 C10.032986,15.1361288 9.98958353,15.0339955 9.98958353,14.9114356 L9.98958353,12.7564268 C9.98958353,12.0959661 9.80902771,11.6125358 9.4479167,11.3061366 C9.84374958,11.2652835 10.1996526,11.2040033 10.5156251,11.1222971 C10.831597,11.0405904 11.1579862,10.9078173 11.4947913,10.7239778 C11.8315971,10.5401384 12.1128472,10.3137431 12.3385415,10.0447927 C12.5642358,9.77584167 12.7482636,9.41837605 12.8906249,8.97239462 C13.0329863,8.52641319 13.1041666,8.01404582 13.1041666,7.43529129 C13.1041666,6.6114177 12.8298612,5.91010333 12.2812497,5.3313488 C12.5381945,4.71174119 12.5104167,4.01723587 12.1979168,3.24783346 C12.0034723,3.18655323 11.7222223,3.22400209 11.3541666,3.36017941 C10.986111,3.49635734 10.6666665,3.64615215 10.395833,3.80956567 L10.0000002,4.05468473 C9.35416647,3.87765433 8.68750017,3.78913852 8,3.78913852 C7.31249983,3.78913852 6.64583353,3.87765433 5.99999984,4.05468473 C5.888889,3.97978702 5.74131967,3.8878676 5.55729185,3.77892526 C5.37326403,3.66998352 5.08333337,3.53891253 4.68749986,3.38571289 C4.29166635,3.23251325 3.99305569,3.18655323 3.79166662,3.24783346 C3.48611134,4.01723587 3.46180547,4.71174119 3.71874965,5.3313488 C3.17013881,5.91010333 2.89583339,6.6114177 2.89583339,7.43529129 C2.89583339,8.01404582 2.96701374,8.52471108 3.10937508,8.96728829 C3.25173579,9.40986489 3.43402761,9.76733113 3.65624991,10.0396858 C3.87847222,10.312041 4.15798626,10.5401384 4.49479142,10.7239778 C4.83159719,10.9078173 5.15798634,11.0405904 5.47395825,11.1222971 C5.78993078,11.2040033 6.14583318,11.2652835 6.54166668,11.3061366 C6.26388864,11.5512562 6.09375007,11.9019134 6.03124971,12.3581075 C5.88541638,12.4261968 5.72916643,12.4772631 5.56249985,12.5113071 C5.39583327,12.5453518 5.19791683,12.5623741 4.9687499,12.5623741 C4.73958359,12.5623741 4.51215266,12.4891785 4.28645835,12.3427879 C4.06076404,12.1963967 3.8680556,11.9836196 3.70833303,11.7044559 C3.57638894,11.4865718 3.40798636,11.3095408 3.20312468,11.1733635 C2.99826361,11.0371861 2.82638904,10.9554794 2.6874997,10.9282438 L2.47916664,10.897604 C2.33333331,10.897604 2.23263909,10.9129242 2.17708335,10.943564 C2.12152762,10.9742038 2.10416638,11.0133548 2.12500024,11.0610169 C2.14583349,11.108679 2.17708335,11.1563412 2.21874984,11.2040033 C2.26041633,11.2516654 2.30555544,11.2925191 2.35416655,11.3265631 L2.42708353,11.3776301 C2.57986086,11.4457187 2.73090281,11.575087 2.88020815,11.7657355 C3.0295141,11.956384 3.13888894,12.1300102 3.2083333,12.2866146 L3.31250014,12.521521 C3.40277774,12.7802582 3.55555569,12.9896311 3.77083338,13.1496392 C3.98611107,13.3096479 4.21875,13.4117812 4.46875017,13.4560391 C4.71874973,13.5002964 4.96006928,13.5241277 5.19270821,13.527532 C5.42534714,13.5309362 5.61805558,13.5190208 5.77083354,13.4917852 L6.01041647,13.4509321 C6.01041647,13.7096693 6.01215247,14.0126643 6.01562509,14.3599167 C6.01909709,14.7071697 6.02083309,14.8910091 6.02083309,14.9114356 C6.02083309,15.0339955 5.9756946,15.1361288 5.88541638,15.2178349 C5.79513878,15.2995417 5.65625007,15.3233724 5.46874963,15.2893284 C3.85763898,14.7650451 2.54340299,13.8203137 1.52604167,12.4551345 C0.50868035,11.0899546 0,9.55285126 0,7.84382386 C0,6.4207692 0.357639018,5.10835839 1.07291643,3.90659203 C1.78819447,2.70482567 2.75868068,1.75328531 3.98437507,1.05197094 C5.21006945,0.350657183 6.54861131,-6.21724894e-15 8,-6.21724894e-15 C9.45138869,-6.21724894e-15 10.7899305,0.350657183 12.0156249,1.05197094 C13.2413193,1.75328531 14.2118055,2.70482567 14.9270829,3.90659203 C15.642361,5.10835839 16,6.4207692 16,7.84382386 C16,9.55285126 15.491319,11.0899546 14.4739583,12.4551345 Z" id="Shape"></path>
                        </g>
                    </g>
                </g>
            </g>
        </g>
    </g>
</svg>

<svg width="16" height="16" viewBox="0 0 16 16" xmlns="http://www.w3.org/2000/svg"><path d="M14.474 12.455c-1.017 1.365-2.332 2.31-3.943 2.834-.187.034-.325.01-.411-.071-.087-.082-.13-.184-.13-.306v-2.155c0-.66-.181-1.144-.542-1.45.396-.041.752-.102 1.068-.184.316-.082.642-.214.979-.398.337-.184.618-.41.844-.679.226-.269.41-.626.552-1.072.142-.446.214-.958.214-1.537 0-.824-.274-1.525-.823-2.104.257-.62.229-1.314-.083-2.084-.194-.061-.476-.024-.844.112s-.688.286-.958.449l-.396.245c-.646-.177-1.313-.266-2-.266-.688 0-1.354.089-2 .266l-.443-.276c-.184-.109-.474-.24-.87-.393-.396-.153-.694-.199-.896-.138-.306.769-.33 1.464-.073 2.084-.549.579-.823 1.28-.823 2.104 0 .579.071 1.089.214 1.532.142.443.325.8.547 1.072.222.272.502.5.839.684.337.184.663.317.979.398.316.082.672.143 1.068.184-.278.245-.448.596-.51 1.052-.146.068-.302.119-.469.153-.167.034-.365.051-.594.051-.229 0-.457-.073-.682-.22-.226-.146-.418-.359-.578-.638-.132-.218-.3-.395-.505-.531-.205-.136-.377-.218-.516-.245l-.208-.031c-.146 0-.247.015-.302.046-.056.031-.073.07-.052.117l.094.143.135.123.073.051c.153.068.304.197.453.388.149.191.259.364.328.521l.104.235c.09.259.243.468.458.628.215.16.448.262.698.306.25.044.491.068.724.071.233.003.425-.009.578-.036l.24-.041.005.909.005.552c0 .123-.045.225-.135.306-.09.082-.229.106-.417.071-1.611-.524-2.925-1.469-3.943-2.834-1.017-1.365-1.526-2.902-1.526-4.611 0-1.423.358-2.735 1.073-3.937s1.686-2.153 2.911-2.855c1.226-.701 2.564-1.052 4.016-1.052 1.451 0 2.79.351 4.016 1.052 1.226.701 2.196 1.653 2.911 2.855.715 1.202 1.073 2.514 1.073 3.937 0 1.709-.509 3.246-1.526 4.611z" fill="#0070D3"/></svg>
